X: 32532
T: Planxty Dermot Grogan
R: jig
M: 6/8
K: Dmajor
|:A,DE|"D"F3 E ED|"G"B3 A Bd|"A"e3 f de|"Bm"fe ed BA|
"G"B3 A AB|"D"AF DF ED|"A"E2 "Bm"F2 "G"D2|"A"E3 A, B,D|
"A"E3 F DE|"D"FE ED FA|"G"BA (3ABd "A"ea|"Bm"ef ed "G"BA|
"G"B3 A AB|"D"AF DF ED|"A"EF "G"D2 "G"D2|"D"D3:|
|:ABd|"A"e3 f de|"Bm"fe ed fa|"G"ba af ab|"D"af df ed|
"A"e3 f de|"Bm"fe ed BA|"G"BA (3ABd AF|"D"D3 A, B,D|
"A"E3 F DE|"D"FE ED FA|"G"BA (3ABd "A"ea|"Bm"ef ed "B"BA|
"G"B3 A AB|"D"AF DF ED|"A"EF D2 "G"D2|"G"D3:|

